X:735
T: Barrel of Wash
T: Bairille Braiche
S: B.Breathnach:"Ceol Rince na hEireann" IV/147
Z: B.Black
L: 1/8
M: 4/4
R: reel
K: D
fe|dBBd AFAB|defd efde|faag bgaf|defd e2 fe|
dBBd AFAB|defd efde|faag bgaf|edef d2 :|
eg|faag bgaf|defd edBd|faag bgaf|defd e2 de|
faag bgaf|g2 fg efdB|AF (3FFF ABdf|afef d2 :|
